X:197
T:Kirkloes Park. VWMLa.197
%%VWML:Anon2-3049-p122-0
F:http://www.vwml.org/record/Anon2/3049/p122
S:Anon. MS, late 18thC, Vaughan Williams Mem. Library
O:England;Yorkshire
Z:vmp/efdss.Simon Wilson. Reviewed PJH 2008.
M:2/4
L:1/16
Q:1/4=120
K:D
A2|[F4d4] [A4e4]|(fe)fg afdA|B2B2 g3f|(fe)(^ga) A3A|\
[F2d2][F2d2] [A2e2][A2e2]|(fe)fg afdA|B3g fedc|d4 D2:|
|:a2|a2f2 (bg)(bg)|g3e (af)(af)|.g2.f2 .e2.d2|(cdec) A3G|\
FAGB AcBd|(gf)(ba) a3g|(gfed) (Adce)|d4 D2:|
T:Daniel Deaker. VWMLa.198
R:Cotillion
S:Anon. MS, late 18thC, Vaughan Williams Mem. Library
O:England;Yorkshire
Z:vmp/efdss.Simon Wilson. Reviewed PJH 2008.
M:6/8
L:1/8
Q:3/8=100
K:Bb
B2F D2B,|DFB G2E|e2c d2B|GcB A2F|\
B2F D2B,|DFB G2E|e2c d2B|FBA B3:|
|:b2g a2f|geg f2d|e2c dcB|GcB A2F|\
B2F DB,D|EGB A2F|d2B (c/d/e).c|AFA B3:|
